X:4730
L:1/8
Q:1/8=128
M:4/4
K:D
|: d | A<F F>E D>A G/F/E/D/ | A<F F>A B2- B<d | A<F F>E D>A G/F/E/D/ | G<B A>F E2- Ed | 
 A<F F>E D>A G/F/E/D/ | A<F F>A B2- Bd | A<F F>E D>A G/F/E/D/ | G<B A>F E2- EA | 
 d2 f>d B>e d/c/B/A/ | d>e f>d B2- B>A | d>e f>d B>e d/c/B/A/ | d>B A<F E2- E>c | 
 d2 f>d B>e d/c/B/A/ | d>e f>d B2- B>g | (3(fed) (3(cde) (3(dcB) (3(ABc) | d>B A<F E2- E :|

